X: 3004
T: Battle Of Brisbane
R: polka
M: 2/4
K: Gmajor
BD B2|cB A2|G>A BG|D4|E2 e2|dB G2|D>c BA|G4:|
Ec Ec|Ec Ec|Ec Ec|DB B2|Ec Ec|Ec Ec|Ec Ec|DB B2|
Ec Ec|Ec Ec|Ec Ec|DB B2|E2 e2|dB G2|D>c BA|G4||

